X: 1
T: Nach Teann & C
M: 6/8
L: 1/8
R: jig
K: Dmix
|:G2D G2d | BGd dBG | G2D G2B | BGc AFD |
G2D G2d | BGd dBG | DGG G2A | B2G AFD :|
|:G2A B2E | EFE BGE | G2A B2E | D3 AFD |
G2A B2E | EFE BGE | G2A BGd | dBG AFD :|
